img/dop1.svg

<svg width="12" height="12" viewBox="0 0 12 12" fill="none" xmlns="http://www.w3.org/2000/svg">
<path d="M10.8683 3.81223L10.3711 0.331969C10.3303 0.0466406 9.97956 -0.0719297 9.77444 0.133195L9.05036 0.857273C8.11926 0.295594 7.06218 0 5.97522 0C2.70644 0 0.0820699 2.55844 0.000366791 5.82448C-0.00408633 6.003 0.125687 6.15612 0.302148 6.18152L1.70702 6.38236C1.91645 6.41292 2.11129 6.24848 2.10838 6.02944C2.07925 3.87389 3.82023 2.10938 5.97522 2.10938C6.49705 2.10938 7.01273 2.21545 7.48928 2.41835L6.79131 3.11632C6.58748 3.32016 6.70316 3.67193 6.99009 3.71302L10.4703 4.21015C10.6997 4.24472 10.9011 4.04529 10.8683 3.81223Z" fill="url(#paint0_linear)"/>
<path d="M11.6981 5.84533L10.2942 5.64482C10.1129 5.62185 9.89288 5.77727 9.89288 6.02317C9.89288 8.15554 8.15806 9.89036 6.02569 9.89036C5.50659 9.89036 4.99331 9.78531 4.51852 9.58445L5.19417 8.9088C5.39801 8.70496 5.28232 8.35319 4.9954 8.3121L1.51514 7.81462C1.28655 7.78197 1.08413 7.978 1.11722 8.21254L1.61433 11.6928C1.65525 11.9785 2.00564 12.0962 2.21102 11.8916L2.95261 11.1504C3.87923 11.7069 4.93563 11.9997 6.02569 11.9997C9.27867 11.9997 11.9027 9.454 11.9998 6.20411C12.005 6.02523 11.8752 5.87073 11.6981 5.84533Z" fill="url(#paint1_linear)"/>
<defs>
<linearGradient id="paint0_linear" x1="-0.0213177" y1="-0.0276433" x2="4.06207" y2="8.25628" gradientUnits="userSpaceOnUse">
<stop stop-color="#FECA52"/>
<stop offset="0.515625" stop-color="#FFCE5F"/>
<stop offset="1" stop-color="#FF644E"/>
</linearGradient>
<linearGradient id="paint1_linear" x1="1.09205" y1="5.61506" x2="5.14238" y2="13.8805" gradientUnits="userSpaceOnUse">
<stop stop-color="#FECA52"/>
<stop offset="0.515625" stop-color="#FFCE5F"/>
<stop offset="1" stop-color="#FF644E"/>
</linearGradient>
</defs>
</svg>

<svg width="12" height="12" viewBox="0 0 12 12" fill="none" xmlns="http://www.w3.org/2000/svg"><path d="M10.868 3.812l-.497-3.48a.352.352 0 0 0-.597-.199L9.05.857A5.937 5.937 0 0 0 5.975 0 5.941 5.941 0 0 0 0 5.824a.352.352 0 0 0 .302.358l1.405.2c.21.03.404-.134.401-.353A3.869 3.869 0 0 1 7.49 2.42l-.698.697a.352.352 0 0 0 .2.597l3.48.497c.229.035.43-.165.397-.398z" fill="url(#a)"/><path d="M11.698 5.845l-1.404-.2a.376.376 0 0 0-.401.378 3.872 3.872 0 0 1-5.374 3.561l.675-.675a.352.352 0 0 0-.199-.597l-3.48-.497a.352.352 0 0 0-.398.398l.497 3.48c.041.286.392.403.597.199l.742-.742c.926.557 1.983.85 3.073.85A5.947 5.947 0 0 0 12 6.204a.352.352 0 0 0-.302-.359z" fill="url(#b)"/><defs><linearGradient id="a" x1="-.021" y1="-.028" x2="4.062" y2="8.256" gradientUnits="userSpaceOnUse"><stop stop-color="#FECA52"/><stop offset=".516" stop-color="#FFCE5F"/><stop offset="1" stop-color="#FF644E"/></linearGradient><linearGradient id="b" x1="1.092" y1="5.615" x2="5.142" y2="13.88" gradientUnits="userSpaceOnUse"><stop stop-color="#FECA52"/><stop offset=".516" stop-color="#FFCE5F"/><stop offset="1" stop-color="#FF644E"/></linearGradient></defs></svg>
